X:10046
T:Madamoiselle Voulez Vous Dancer
M:4/4
K:D
f2fff2gf|e2e2d4|c3de2c2|d2e2f2a2|f2fff2gf|e2e2d2(3Adf|g3fe2A2|B2c2d4:||d2df afdA|=c2=ce gecA|d2df afda|gfec d3A|d2df afdA|=c2ce gecA|d2df afda|gfec d4:||
